public/images/home/hey.svg

<svg width="1004" height="236" viewBox="0 0 1004 236" fill="none" xmlns="http://www.w3.org/2000/svg">
<path d="M74.6 -7.15256e-06H104C105.1 -7.15256e-06 106.05 0.399994 106.85 1.2C107.65 2 108.05 2.95 108.05 4.04999V100.95C108.05 102.05 107.65 103 106.85 103.8C106.05 104.6 105.1 105 104 105H74.6C73.5 105 72.55 104.6 71.75 103.8C70.95 103 70.55 102.05 70.55 100.95V68.55H46.25V100.95C46.25 102.05 45.85 103 45.05 103.8C44.25 104.6 43.3 105 42.2 105H12.8C11.7 105 10.75 104.65 9.95 103.95C9.15 103.15 8.75 102.15 8.75 100.95V4.04999C8.75 2.95 9.15 2 9.95 1.2C10.75 0.399994 11.7 -7.15256e-06 12.8 -7.15256e-06H42.2C43.3 -7.15256e-06 44.25 0.399994 45.05 1.2C45.85 2 46.25 2.95 46.25 4.04999V35.55H70.55V4.04999C70.55 2.95 70.95 2 71.75 1.2C72.55 0.399994 73.5 -7.15256e-06 74.6 -7.15256e-06ZM159.799 75.75H205.999C207.099 75.75 208.049 76.15 208.849 76.95C209.649 77.75 210.049 78.7 210.049 79.8V100.95C210.049 102.05 209.649 103 208.849 103.8C208.049 104.6 207.099 105 205.999 105H127.849C126.749 105 125.799 104.6 124.999 103.8C124.199 103 123.799 102.05 123.799 100.95V4.04999C123.799 2.95 124.199 2 124.999 1.2C125.799 0.399994 126.749 -7.15256e-06 127.849 -7.15256e-06H204.799C205.899 -7.15256e-06 206.849 0.399994 207.649 1.2C208.449 2 208.849 2.95 208.849 4.04999V25.2C208.849 26.3 208.449 27.25 207.649 28.05C206.849 28.85 205.899 29.25 204.799 29.25H159.799V38.7H201.499C202.599 38.7 203.549 39.1 204.349 39.9C205.149 40.7 205.549 41.65 205.549 42.75V62.25C205.549 63.35 205.149 64.3 204.349 65.1C203.549 65.9 202.599 66.3 201.499 66.3H159.799V75.75ZM283.596 105H254.196C253.096 105 252.146 104.6 251.346 103.8C250.546 103 250.146 102.05 250.146 100.95V71.4L216.396 4.65C216.196 4.24999 216.096 3.7 216.096 3C216.096 2.3 216.396 1.65 216.996 1.05C217.696 0.349994 218.496 -7.15256e-06 219.396 -7.15256e-06H247.596C250.596 -7.15256e-06 252.696 1.24999 253.896 3.75L268.896 33.9L283.896 3.75C285.096 1.24999 287.196 -7.15256e-06 290.196 -7.15256e-06H318.396C319.296 -7.15256e-06 320.046 0.349994 320.646 1.05C321.346 1.65 321.696 2.3 321.696 3C321.696 3.7 321.596 4.24999 321.396 4.65L287.646 71.4V100.95C287.646 102.05 287.246 103 286.446 103.8C285.646 104.6 284.696 105 283.596 105ZM338.141 70.8H362.891C363.791 70.8 364.541 71.15 365.141 71.85C365.841 72.45 366.191 73.1 366.191 73.8C366.191 74.4 366.141 74.85 366.041 75.15L351.791 111.3C350.591 114.5 348.291 116.1 344.891 116.1H328.691C327.791 116.1 326.991 115.75 326.291 115.05C325.691 114.45 325.391 113.7 325.391 112.8V112.5L330.941 76.65C331.141 75.15 331.891 73.8 333.191 72.6C334.591 71.4 336.241 70.8 338.141 70.8ZM68 234H38.6C37.5 234 36.55 233.6 35.75 232.8C34.95 232 34.55 231.05 34.55 229.95V200.4L0.8 133.65C0.6 133.25 0.5 132.7 0.5 132C0.5 131.3 0.8 130.65 1.4 130.05C2.1 129.35 2.9 129 3.8 129H32C35 129 37.1 130.25 38.3 132.75L53.3 162.9L68.3 132.75C69.5 130.25 71.6 129 74.6 129H102.8C103.7 129 104.45 129.35 105.05 130.05C105.75 130.65 106.1 131.3 106.1 132C106.1 132.7 106 133.25 105.8 133.65L72.05 200.4V229.95C72.05 231.05 71.65 232 70.85 232.8C70.05 233.6 69.1 234 68 234ZM124.195 138.6C133.395 131.2 145.545 127.5 160.645 127.5C175.745 127.5 187.845 131.25 196.945 138.75C206.145 146.15 210.745 156.6 210.745 170.1V193.5C210.745 207.2 206.195 217.65 197.095 224.85C188.095 231.95 175.945 235.5 160.645 235.5C145.345 235.5 133.145 231.95 124.045 224.85C115.045 217.65 110.545 207.2 110.545 193.5V170.1C110.545 156.5 115.095 146 124.195 138.6ZM152.545 203.25C154.545 205.25 157.245 206.25 160.645 206.25C164.045 206.25 166.745 205.25 168.745 203.25C170.745 201.25 171.745 198.2 171.745 194.1V168.9C171.745 164.9 170.745 161.9 168.745 159.9C166.745 157.8 164.045 156.75 160.645 156.75C157.245 156.75 154.545 157.8 152.545 159.9C150.545 161.9 149.545 164.9 149.545 168.9V194.1C149.545 198.2 150.545 201.25 152.545 203.25ZM285.717 129H315.117C316.217 129 317.167 129.4 317.967 130.2C318.767 131 319.167 131.95 319.167 133.05V193.35C319.167 207.35 314.817 217.9 306.117 225C297.417 232 285.567 235.5 270.567 235.5C255.667 235.5 243.817 232 235.017 225C226.317 218 221.967 207.45 221.967 193.35V133.05C221.967 131.95 222.367 131 223.167 130.2C223.967 129.4 224.917 129 226.017 129H255.417C256.517 129 257.467 129.4 258.267 130.2C259.067 131 259.467 131.95 259.467 133.05V193.8C259.467 201.5 263.167 205.35 270.567 205.35C277.967 205.35 281.667 201.5 281.667 193.8V133.05C281.667 131.95 282.067 131 282.867 130.2C283.667 129.4 284.617 129 285.717 129ZM370.445 162C370.445 151.8 374.645 143.5 383.045 137.1C391.545 130.7 402.645 127.5 416.345 127.5C430.145 127.5 441.395 130.85 450.095 137.55C458.895 144.25 463.295 151.25 463.295 158.55C463.295 159.45 462.945 160.25 462.245 160.95C461.645 161.55 460.945 161.85 460.145 161.85H430.145C427.845 161.85 425.745 161 423.845 159.3C421.945 157.6 419.395 156.75 416.195 156.75C411.395 156.75 408.995 158.15 408.995 160.95C408.995 162.45 410.145 163.7 412.445 164.7C414.845 165.7 419.245 166.6 425.645 167.4C440.545 169.3 451.145 172.8 457.445 177.9C463.845 182.9 467.045 190.55 467.045 200.85C467.045 211.05 462.345 219.4 452.945 225.9C443.645 232.3 431.445 235.5 416.345 235.5C401.245 235.5 389.395 232.4 380.795 226.2C372.195 220 367.895 212.45 367.895 203.55C367.895 202.65 368.195 201.9 368.795 201.3C369.495 200.6 370.295 200.25 371.195 200.25H399.695C401.795 200.25 404.095 201.25 406.595 203.25C409.195 205.25 412.745 206.25 417.245 206.25C424.745 206.25 428.495 204.85 428.495 202.05C428.495 200.25 427.145 198.9 424.445 198C421.745 197 416.645 196 409.145 195C383.345 191.6 370.445 180.6 370.445 162ZM543.35 129H572.75C573.85 129 574.8 129.4 575.6 130.2C576.4 131 576.8 131.95 576.8 133.05V229.95C576.8 231.05 576.4 232 575.6 232.8C574.8 233.6 573.85 234 572.75 234H543.35C542.25 234 541.3 233.6 540.5 232.8C539.7 232 539.3 231.05 539.3 229.95V197.55H515V229.95C515 231.05 514.6 232 513.8 232.8C513 233.6 512.05 234 510.95 234H481.55C480.45 234 479.5 233.65 478.7 232.95C477.9 232.15 477.5 231.15 477.5 229.95V133.05C477.5 131.95 477.9 131 478.7 130.2C479.5 129.4 480.45 129 481.55 129H510.95C512.05 129 513 129.4 513.8 130.2C514.6 131 515 131.95 515 133.05V164.55H539.3V133.05C539.3 131.95 539.7 131 540.5 130.2C541.3 129.4 542.25 129 543.35 129ZM603.199 138.6C612.399 131.2 624.549 127.5 639.649 127.5C654.749 127.5 666.849 131.25 675.949 138.75C685.149 146.15 689.749 156.6 689.749 170.1V193.5C689.749 207.2 685.199 217.65 676.099 224.85C667.099 231.95 654.949 235.5 639.649 235.5C624.349 235.5 612.149 231.95 603.049 224.85C594.049 217.65 589.549 207.2 589.549 193.5V170.1C589.549 156.5 594.099 146 603.199 138.6ZM631.549 203.25C633.549 205.25 636.249 206.25 639.649 206.25C643.049 206.25 645.749 205.25 647.749 203.25C649.749 201.25 650.749 198.2 650.749 194.1V168.9C650.749 164.9 649.749 161.9 647.749 159.9C645.749 157.8 643.049 156.75 639.649 156.75C636.249 156.75 633.549 157.8 631.549 159.9C629.549 161.9 628.549 164.9 628.549 168.9V194.1C628.549 198.2 629.549 201.25 631.549 203.25ZM764.721 129H794.121C795.221 129 796.171 129.4 796.971 130.2C797.771 131 798.171 131.95 798.171 133.05V193.35C798.171 207.35 793.821 217.9 785.121 225C776.421 232 764.571 235.5 749.571 235.5C734.671 235.5 722.821 232 714.021 225C705.321 218 700.971 207.45 700.971 193.35V133.05C700.971 131.95 701.371 131 702.171 130.2C702.971 129.4 703.921 129 705.021 129H734.421C735.521 129 736.471 129.4 737.271 130.2C738.071 131 738.471 131.95 738.471 133.05V193.8C738.471 201.5 742.171 205.35 749.571 205.35C756.971 205.35 760.671 201.5 760.671 193.8V133.05C760.671 131.95 761.071 131 761.871 130.2C762.671 129.4 763.621 129 764.721 129ZM850.493 203.25H892.043C893.143 203.25 894.093 203.65 894.893 204.45C895.693 205.25 896.093 206.2 896.093 207.3V229.95C896.093 231.05 895.693 232 894.893 232.8C894.093 233.6 893.143 234 892.043 234H816.443C815.343 234 814.393 233.6 813.593 232.8C812.793 232 812.393 231.05 812.393 229.95V133.05C812.393 131.95 812.793 131 813.593 130.2C814.393 129.4 815.343 129 816.443 129H846.443C847.543 129 848.493 129.4 849.293 130.2C850.093 131 850.493 131.95 850.493 133.05V203.25ZM909.958 129H953.158C967.758 129 979.758 132.65 989.158 139.95C998.658 147.15 1003.41 157.25 1003.41 170.25V192.6C1003.41 206.2 998.808 216.5 989.608 223.5C980.408 230.5 968.308 234 953.308 234H909.958C908.858 234 907.908 233.6 907.108 232.8C906.308 232 905.908 231.05 905.908 229.95V133.05C905.908 131.95 906.308 131 907.108 130.2C907.908 129.4 908.858 129 909.958 129ZM943.408 158.25V204.75H953.158C956.558 204.75 959.258 203.75 961.258 201.75C963.358 199.65 964.408 196.6 964.408 192.6V170.25C964.408 162.25 960.658 158.25 953.158 158.25H943.408Z" fill="#1E1E1E"/>
</svg>

<svg width="1004" height="236" fill="none" xmlns="http://www.w3.org/2000/svg"><path d="M74.6 0H104c1.1 0 2.05.4 2.85 1.2.8.8 1.2 1.75 1.2 2.85v96.9c0 1.1-.4 2.05-1.2 2.85-.8.8-1.75 1.2-2.85 1.2H74.6c-1.1 0-2.05-.4-2.85-1.2-.8-.8-1.2-1.75-1.2-2.85v-32.4h-24.3v32.4c0 1.1-.4 2.05-1.2 2.85-.8.8-1.75 1.2-2.85 1.2H12.8c-1.1 0-2.05-.35-2.85-1.05-.8-.8-1.2-1.8-1.2-3V4.05c0-1.1.4-2.05 1.2-2.85C10.75.4 11.7 0 12.8 0h29.4c1.1 0 2.05.4 2.85 1.2.8.8 1.2 1.75 1.2 2.85v31.5h24.3V4.05c0-1.1.4-2.05 1.2-2.85C72.55.4 73.5 0 74.6 0Zm85.199 75.75h46.2c1.1 0 2.05.4 2.85 1.2.8.8 1.2 1.75 1.2 2.85v21.15c0 1.1-.4 2.05-1.2 2.85-.8.8-1.75 1.2-2.85 1.2h-78.15c-1.1 0-2.05-.4-2.85-1.2-.8-.8-1.2-1.75-1.2-2.85V4.05c0-1.1.4-2.05 1.2-2.85.8-.8 1.75-1.2 2.85-1.2h76.95c1.1 0 2.05.4 2.85 1.2.8.8 1.2 1.75 1.2 2.85V25.2c0 1.1-.4 2.05-1.2 2.85-.8.8-1.75 1.2-2.85 1.2h-45v9.45h41.7c1.1 0 2.05.4 2.85 1.2.8.8 1.2 1.75 1.2 2.85v19.5c0 1.1-.4 2.05-1.2 2.85-.8.8-1.75 1.2-2.85 1.2h-41.7v9.45ZM283.596 105h-29.4c-1.1 0-2.05-.4-2.85-1.2-.8-.8-1.2-1.75-1.2-2.85V71.4l-33.75-66.75c-.2-.4-.3-.95-.3-1.65s.3-1.35.9-1.95c.7-.7 1.5-1.05 2.4-1.05h28.2c3 0 5.1 1.25 6.3 3.75l15 30.15 15-30.15c1.2-2.5 3.3-3.75 6.3-3.75h28.2c.9 0 1.65.35 2.25 1.05.7.6 1.05 1.25 1.05 1.95s-.1 1.25-.3 1.65l-33.75 66.75v29.55c0 1.1-.4 2.05-1.2 2.85-.8.8-1.75 1.2-2.85 1.2Zm54.545-34.2h24.75c.9 0 1.65.35 2.25 1.05.7.6 1.05 1.25 1.05 1.95 0 .6-.05 1.05-.15 1.35l-14.25 36.15c-1.2 3.2-3.5 4.8-6.9 4.8h-16.2c-.9 0-1.7-.35-2.4-1.05-.6-.6-.9-1.35-.9-2.25v-.3l5.55-35.85c.2-1.5.95-2.85 2.25-4.05 1.4-1.2 3.05-1.8 4.95-1.8ZM68 234H38.6c-1.1 0-2.05-.4-2.85-1.2-.8-.8-1.2-1.75-1.2-2.85V200.4L.8 133.65c-.2-.4-.3-.95-.3-1.65s.3-1.35.9-1.95c.7-.7 1.5-1.05 2.4-1.05H32c3 0 5.1 1.25 6.3 3.75l15 30.15 15-30.15c1.2-2.5 3.3-3.75 6.3-3.75h28.2c.9 0 1.65.35 2.25 1.05.7.6 1.05 1.25 1.05 1.95s-.1 1.25-.3 1.65L72.05 200.4v29.55c0 1.1-.4 2.05-1.2 2.85-.8.8-1.75 1.2-2.85 1.2Zm56.195-95.4c9.2-7.4 21.35-11.1 36.45-11.1 15.1 0 27.2 3.75 36.3 11.25 9.2 7.4 13.8 17.85 13.8 31.35v23.4c0 13.7-4.55 24.15-13.65 31.35-9 7.1-21.15 10.65-36.45 10.65-15.3 0-27.5-3.55-36.6-10.65-9-7.2-13.5-17.65-13.5-31.35v-23.4c0-13.6 4.55-24.1 13.65-31.5Zm28.35 64.65c2 2 4.7 3 8.1 3 3.4 0 6.1-1 8.1-3s3-5.05 3-9.15v-25.2c0-4-1-7-3-9-2-2.1-4.7-3.15-8.1-3.15-3.4 0-6.1 1.05-8.1 3.15-2 2-3 5-3 9v25.2c0 4.1 1 7.15 3 9.15ZM285.717 129h29.4c1.1 0 2.05.4 2.85 1.2.8.8 1.2 1.75 1.2 2.85v60.3c0 14-4.35 24.55-13.05 31.65-8.7 7-20.55 10.5-35.55 10.5-14.9 0-26.75-3.5-35.55-10.5-8.7-7-13.05-17.55-13.05-31.65v-60.3c0-1.1.4-2.05 1.2-2.85.8-.8 1.75-1.2 2.85-1.2h29.4c1.1 0 2.05.4 2.85 1.2.8.8 1.2 1.75 1.2 2.85v60.75c0 7.7 3.7 11.55 11.1 11.55 7.4 0 11.1-3.85 11.1-11.55v-60.75c0-1.1.4-2.05 1.2-2.85.8-.8 1.75-1.2 2.85-1.2Zm84.728 33c0-10.2 4.2-18.5 12.6-24.9 8.5-6.4 19.6-9.6 33.3-9.6 13.8 0 25.05 3.35 33.75 10.05 8.8 6.7 13.2 13.7 13.2 21 0 .9-.35 1.7-1.05 2.4-.6.6-1.3.9-2.1.9h-30c-2.3 0-4.4-.85-6.3-2.55-1.9-1.7-4.45-2.55-7.65-2.55-4.8 0-7.2 1.4-7.2 4.2 0 1.5 1.15 2.75 3.45 3.75 2.4 1 6.8 1.9 13.2 2.7 14.9 1.9 25.5 5.4 31.8 10.5 6.4 5 9.6 12.65 9.6 22.95 0 10.2-4.7 18.55-14.1 25.05-9.3 6.4-21.5 9.6-36.6 9.6-15.1 0-26.95-3.1-35.55-9.3-8.6-6.2-12.9-13.75-12.9-22.65 0-.9.3-1.65.9-2.25.7-.7 1.5-1.05 2.4-1.05h28.5c2.1 0 4.4 1 6.9 3 2.6 2 6.15 3 10.65 3 7.5 0 11.25-1.4 11.25-4.2 0-1.8-1.35-3.15-4.05-4.05-2.7-1-7.8-2-15.3-3-25.8-3.4-38.7-14.4-38.7-33Zm172.905-33h29.4c1.1 0 2.05.4 2.85 1.2.8.8 1.2 1.75 1.2 2.85v96.9c0 1.1-.4 2.05-1.2 2.85-.8.8-1.75 1.2-2.85 1.2h-29.4c-1.1 0-2.05-.4-2.85-1.2-.8-.8-1.2-1.75-1.2-2.85v-32.4H515v32.4c0 1.1-.4 2.05-1.2 2.85-.8.8-1.75 1.2-2.85 1.2h-29.4c-1.1 0-2.05-.35-2.85-1.05-.8-.8-1.2-1.8-1.2-3v-96.9c0-1.1.4-2.05 1.2-2.85.8-.8 1.75-1.2 2.85-1.2h29.4c1.1 0 2.05.4 2.85 1.2.8.8 1.2 1.75 1.2 2.85v31.5h24.3v-31.5c0-1.1.4-2.05 1.2-2.85.8-.8 1.75-1.2 2.85-1.2Zm59.849 9.6c9.2-7.4 21.35-11.1 36.45-11.1 15.1 0 27.2 3.75 36.3 11.25 9.2 7.4 13.8 17.85 13.8 31.35v23.4c0 13.7-4.55 24.15-13.65 31.35-9 7.1-21.15 10.65-36.45 10.65-15.3 0-27.5-3.55-36.6-10.65-9-7.2-13.5-17.65-13.5-31.35v-23.4c0-13.6 4.55-24.1 13.65-31.5Zm28.35 64.65c2 2 4.7 3 8.1 3 3.4 0 6.1-1 8.1-3s3-5.05 3-9.15v-25.2c0-4-1-7-3-9-2-2.1-4.7-3.15-8.1-3.15-3.4 0-6.1 1.05-8.1 3.15-2 2-3 5-3 9v25.2c0 4.1 1 7.15 3 9.15ZM764.721 129h29.4c1.1 0 2.05.4 2.85 1.2.8.8 1.2 1.75 1.2 2.85v60.3c0 14-4.35 24.55-13.05 31.65-8.7 7-20.55 10.5-35.55 10.5-14.9 0-26.75-3.5-35.55-10.5-8.7-7-13.05-17.55-13.05-31.65v-60.3c0-1.1.4-2.05 1.2-2.85.8-.8 1.75-1.2 2.85-1.2h29.4c1.1 0 2.05.4 2.85 1.2.8.8 1.2 1.75 1.2 2.85v60.75c0 7.7 3.7 11.55 11.1 11.55 7.4 0 11.1-3.85 11.1-11.55v-60.75c0-1.1.4-2.05 1.2-2.85.8-.8 1.75-1.2 2.85-1.2Zm85.772 74.25h41.55c1.1 0 2.05.4 2.85 1.2.8.8 1.2 1.75 1.2 2.85v22.65c0 1.1-.4 2.05-1.2 2.85-.8.8-1.75 1.2-2.85 1.2h-75.6c-1.1 0-2.05-.4-2.85-1.2-.8-.8-1.2-1.75-1.2-2.85v-96.9c0-1.1.4-2.05 1.2-2.85.8-.8 1.75-1.2 2.85-1.2h30c1.1 0 2.05.4 2.85 1.2.8.8 1.2 1.75 1.2 2.85v70.2ZM909.958 129h43.2c14.6 0 26.6 3.65 36 10.95 9.5 7.2 14.252 17.3 14.252 30.3v22.35c0 13.6-4.602 23.9-13.802 30.9s-21.3 10.5-36.3 10.5h-43.35c-1.1 0-2.05-.4-2.85-1.2-.8-.8-1.2-1.75-1.2-2.85v-96.9c0-1.1.4-2.05 1.2-2.85.8-.8 1.75-1.2 2.85-1.2Zm33.45 29.25v46.5h9.75c3.4 0 6.1-1 8.1-3 2.1-2.1 3.15-5.15 3.15-9.15v-22.35c0-8-3.75-12-11.25-12h-9.75Z" fill="#1E1E1E"/></svg>
